X: 1
T:69th Street [in E]
M:2/4
L:1/8
R:Polka
K:Edor
E>F GA|Be B2|AF DF|EF DF|!
E>F GA|Be B2|AF DF|E2 E2:|]!
ee B2|ee B2|AF DF|EF DF|!
ee B2|ee B2|AF DF|E2 E2||!
ee B2|ee B2|AF DF|EF DF|!
E>F GA|Be B2|AF DF|E2 E2|]!
